justvector/robo.to.svg

<?xml version="1.0" encoding="iso-8859-1"?>
<!-- Generator: Adobe Illustrator 15.0.0, SVG Export Plug-In . SVG Version: 6.00 Build 0)  -->
<!DOCTYPE svg PUBLIC "-//W3C//DTD SVG 1.1//EN" "http://www.w3.org/Graphics/SVG/1.1/DTD/svg11.dtd">
<svg version="1.1" id="Layer_1" xmlns="http://www.w3.org/2000/svg" xmlns:xlink="http://www.w3.org/1999/xlink" x="0px" y="0px"
	 width="100px" height="100px" viewBox="0 0 100 100" style="enable-background:new 0 0 100 100;" xml:space="preserve">
<path id="Robo.to" d="M57.689,40.929c0-1.804,1.449-3.266,3.24-3.266c1.787,0,3.237,1.462,3.237,3.266s-1.45,3.267-3.237,3.267
	C59.139,44.195,57.689,42.732,57.689,40.929z M47.611,13.106h-0.027v4.477h4.109v-4.346c1.415-0.717,2.395-2.176,2.395-3.881
	c0-2.406-1.932-4.355-4.318-4.355c-2.385,0-4.319,1.949-4.319,4.355C45.45,10.966,46.324,12.353,47.611,13.106z M38.619,44.195
	c1.787,0,3.237-1.463,3.237-3.267s-1.45-3.266-3.237-3.266c-1.791,0-3.24,1.462-3.24,3.266S36.828,44.195,38.619,44.195z
	 M49.77,95.001c4.875,0,9.018-3.127,10.592-7.5H39.178C40.752,91.874,44.894,95.001,49.77,95.001z M16,81.731
	c0-1.728,1.006-3.208,2.453-3.911V59.302c0-3.652,2.82-6.635,6.385-6.872v-8.96c0,0,0.867-16.332,14.34-21.412
	C43.18,20.55,46.834,19.94,50,19.825c3.168,0.115,6.822,0.725,10.821,2.232c13.475,5.08,14.343,21.412,14.343,21.412v8.96
	c3.563,0.237,6.383,3.22,6.383,6.872V77.82C82.994,78.523,84,80.004,84,81.731c0,2.405-1.934,4.354-4.319,4.354
	c-2.384,0-4.317-1.949-4.317-4.354c0-1.728,1.006-3.208,2.45-3.911V65.44c-0.803,0.415-1.702,0.664-2.649,0.729v4.302
	c0.024,0.348,0.053,0.693,0.053,1.049c0,0.377-0.025,0.75-0.053,1.123v0.1h-0.005c-0.575,7.168-6.136,12.911-13.185,13.694
	l0.006,0.097H50H38.018l0.008-0.097c-7.049-0.783-12.609-6.526-13.184-13.694h-0.004v-0.1c-0.027-0.373-0.053-0.746-0.053-1.123
	c0-0.355,0.027-0.701,0.053-1.049V66.17c-0.95-0.065-1.85-0.314-2.653-0.729v12.38c1.447,0.703,2.453,2.184,2.453,3.911
	c0,2.405-1.933,4.354-4.319,4.354C17.935,86.086,16,84.137,16,81.731z M57.207,58.956c0-1.156-0.93-2.096-2.078-2.096
	c-1.15,0-2.08,0.939-2.08,2.096c0,1.158,0.93,2.098,2.08,2.098C56.277,61.054,57.207,60.114,57.207,58.956z M62.324,58.956
	c0-1.156-0.93-2.096-2.078-2.096s-2.08,0.939-2.08,2.096c0,1.158,0.932,2.098,2.08,2.098S62.324,60.114,62.324,58.956z
	 M67.443,58.956c0-1.156-0.93-2.096-2.078-2.096c-1.15,0-2.08,0.939-2.08,2.096c0,1.158,0.93,2.098,2.08,2.098
	C66.514,61.054,67.443,60.114,67.443,58.956z M32.5,41.534c0,5.564,4.319,5.928,4.319,5.928c1.503,0.479,4.679,0.241,6.116,0
	c1.323-0.225,6.176-0.648,6.949-0.717c0.029,0.003,0.076,0.008,0.115,0.01c0.041-0.002,0.087-0.007,0.115-0.01
	c0.772,0.068,5.625,0.492,6.948,0.717c1.44,0.241,4.614,0.479,6.118,0c0,0,4.317-0.363,4.317-5.928c0,0,0-6.17-4.317-9.92
	c-4.188-3.637-10.482-4.426-12.952-4.473v-0.004c-0.034,0-0.078,0.003-0.114,0.003c-0.037,0-0.082-0.003-0.115-0.003
	c-0.035,0-0.079,0.003-0.115,0.003c-0.037,0-0.081-0.003-0.115-0.003v0.004c-2.467,0.047-8.763,0.836-12.95,4.473
	C32.5,35.364,32.5,41.534,32.5,41.534z"/>
</svg>

<?xml version="1.0" encoding="UTF-8" standalone="no"?>
<!DOCTYPE svg PUBLIC "-//W3C//DTD SVG 1.1//EN" "http://www.w3.org/Graphics/SVG/1.1/DTD/svg11.dtd">
<svg width="100%" height="100%" viewBox="0 0 100 100" version="1.1" xmlns="http://www.w3.org/2000/svg" xmlns:xlink="http://www.w3.org/1999/xlink" xml:space="preserve" xmlns:serif="http://www.serif.com/" style="fill-rule:evenodd;clip-rule:evenodd;stroke-linejoin:round;stroke-miterlimit:2;">
    <g id="Robo.to" transform="matrix(1.40914,0,0,1.40914,-63.5496,-25.3717)">
        <path d="M57.689,40.929C57.689,39.125 59.138,37.663 60.929,37.663C62.716,37.663 64.166,39.125 64.166,40.929C64.166,42.733 62.716,44.196 60.929,44.196C59.139,44.195 57.689,42.732 57.689,40.929ZM45.032,86.534C45.032,86.534 44.871,53.283 45.06,33.732C45.139,25.614 49.071,19.859 50,19.825C53.168,19.94 56.822,20.55 60.821,22.057C74.296,27.137 75.164,43.469 75.164,43.469L75.164,52.429C78.727,52.666 81.547,55.649 81.547,59.301C81.547,59.301 82.066,86.085 79.681,86.085C77.297,86.085 77.814,65.44 77.814,65.44C77.011,65.855 76.112,66.104 75.165,66.169L75.165,70.471C75.189,70.819 75.218,71.164 75.218,71.52C75.218,71.897 75.193,72.27 75.165,72.643L75.165,72.743L75.16,72.743C74.585,79.911 69.024,85.654 61.975,86.437L61.981,86.534L45.032,86.534ZM57.207,58.956C57.207,57.8 56.277,56.86 55.129,56.86C53.979,56.86 53.049,57.799 53.049,58.956C53.049,60.114 53.979,61.054 55.129,61.054C56.277,61.054 57.207,60.114 57.207,58.956ZM62.324,58.956C62.324,57.8 61.394,56.86 60.246,56.86C59.098,56.86 58.166,57.799 58.166,58.956C58.166,60.114 59.098,61.054 60.246,61.054C61.394,61.054 62.324,60.114 62.324,58.956ZM67.443,58.956C67.443,57.8 66.513,56.86 65.365,56.86C64.215,56.86 63.285,57.799 63.285,58.956C63.285,60.114 64.215,61.054 65.365,61.054C66.514,61.054 67.443,60.114 67.443,58.956ZM49.769,27.141C47.302,27.188 49.111,46.814 49.884,46.745C49.913,46.748 49.96,46.753 49.999,46.755C50.04,46.753 50.086,46.748 50.114,46.745C50.886,46.813 55.739,47.237 57.062,47.462C58.502,47.703 61.676,47.941 63.18,47.462C63.18,47.462 67.497,47.099 67.497,41.534C67.497,41.534 67.497,35.364 63.18,31.614C58.992,27.977 52.698,27.188 50.228,27.141L50.228,27.137C50.194,27.137 50.15,27.14 50.114,27.14C50.077,27.14 50.032,27.137 49.999,27.137C49.964,27.137 49.92,27.14 49.884,27.14C49.847,27.14 49.803,27.137 49.769,27.137L49.769,27.141Z" style="fill-rule:nonzero;"/>
    </g>
</svg>
